deploy/geobrabant/styles/geobrabant/images/mail.svg

<?xml version="1.0" encoding="UTF-8" standalone="no"?>
<svg width="11px" height="11px" viewBox="0 0 11 11" version="1.1" xmlns="http://www.w3.org/2000/svg" xmlns:xlink="http://www.w3.org/1999/xlink" xmlns:sketch="http://www.bohemiancoding.com/sketch/ns">
    <!-- Generator: Sketch 3.2.2 (9983) - http://www.bohemiancoding.com/sketch -->
    <title>arroba</title>
    <desc>Created with Sketch.</desc>
    <defs></defs>
    <g id="Page-5" stroke="none" stroke-width="1" fill="none" fill-rule="evenodd" sketch:type="MSPage">
        <g id="Desktop-HD-2" sketch:type="MSArtboardGroup" transform="translate(-852.000000, -1281.000000)" fill="#000000">
            <g id="Bitmap-+-Group" sketch:type="MSLayerGroup" transform="translate(851.002981, 1157.000000)">
                <g id="Group" transform="translate(0.000000, 68.000000)" sketch:type="MSShapeGroup">
                    <g id="arroba" transform="translate(1.002981, 56.000000)">
                        <path d="M7.21355556,2.84125 L8.02364444,2.84125 L7.46826667,6.04825 C7.40642222,6.419 7.40446667,6.6875 7.4624,6.85325 C7.52033333,7.0185 7.64964444,7.1015 7.85008889,7.1015 C8.05053333,7.1015 8.24731111,7.05425 8.44017778,6.9595 C8.63304444,6.86475 8.80635556,6.719 8.96084444,6.52175 C9.11533333,6.3245 9.24048889,6.07625 9.33704444,5.7765 C9.43335556,5.47675 9.48175556,5.12175 9.48175556,4.71125 C9.48175556,4.1195 9.38495556,3.6145 9.19233333,3.1965 C8.99946667,2.7785 8.73522222,2.433 8.39984444,2.161 C8.06422222,1.8885 7.66871111,1.6895 7.21355556,1.56325 C6.7584,1.437 6.26877778,1.3735 5.74395556,1.3735 C5.14237778,1.3735 4.58308889,1.484 4.06633333,1.705 C3.54957778,1.92625 3.10028889,2.23 2.71822222,2.61625 C2.3364,3.003 2.03744444,3.4625 1.8216,3.99525 C1.60551111,4.5275 1.49771111,5.10525 1.49771111,5.72875 C1.49771111,6.34425 1.58815556,6.89625 1.76928889,7.3855 C1.95066667,7.875 2.21491111,8.29075 2.56202222,8.63425 C2.90913333,8.97725 3.33911111,9.2415 3.85195556,9.42675 C4.3648,9.612 4.95317778,9.70475 5.61684444,9.70475 C5.84026667,9.70475 6.09473333,9.67725 6.38024444,9.62225 C6.66575556,9.56675 6.92413333,9.484 7.15562222,9.3735 L7.51422222,10.50975 C7.19791111,10.6675 6.87597778,10.77775 6.54817778,10.84075 C6.22013333,10.904 5.84417778,10.93575 5.42006667,10.93575 C4.67182222,10.93575 3.97931111,10.825 3.34302222,10.6045 C2.70648889,10.38325 2.15526667,10.056 1.68862222,9.62225 C1.22173333,9.18825 0.857266667,8.64975 0.594733333,8.00675 C0.332688889,7.364 0.201666667,6.62025 0.201666667,5.77625 C0.201666667,4.91625 0.352,4.139 0.653155556,3.44475 C0.953822222,2.751 1.35886667,2.159 1.86804444,1.6695 C2.37722222,1.1805 2.96731111,0.804 3.63831111,0.53925 C4.30931111,0.27525 5.01893333,0.143 5.76717778,0.143 C6.4768,0.143 7.13655556,0.24775 7.74595556,0.4565 C8.35511111,0.66575 8.8836,0.96525 9.33093333,1.356 C9.77826667,1.7465 10.1295333,2.224 10.3842444,2.78825 C10.6387111,3.352 10.7660667,3.99325 10.7660667,4.711 C10.7660667,5.216 10.6795333,5.689 10.5057333,6.13125 C10.3321778,6.57325 10.0931111,6.95575 9.78853333,7.27925 C9.48346667,7.6025 9.12877778,7.85875 8.72397778,8.04825 C8.31917778,8.2375 7.88504444,8.33225 7.42231111,8.33225 C7.2292,8.33225 7.05026667,8.31075 6.88404444,8.26725 C6.71831111,8.22375 6.57946667,8.15075 6.46775556,8.04825 C6.3558,7.9455 6.27293333,7.8115 6.21891111,7.64575 C6.16488889,7.48025 6.14924444,7.27525 6.17271111,7.0305 L6.12651111,7.0305 C6.01064444,7.19625 5.88548889,7.358 5.75055556,7.5155 C5.61537778,7.6735 5.467,7.8135 5.30493333,7.93575 C5.14311111,8.05825 4.9654,8.15475 4.77277778,8.22575 C4.57966667,8.2965 4.36773333,8.33225 4.13624444,8.33225 C3.9512,8.33225 3.77373333,8.29075 3.60408889,8.20825 C3.4342,8.12525 3.28753333,8.00875 3.16433333,7.859 C3.04064444,7.70925 2.94237778,7.52775 2.86928889,7.3145 C2.79571111,7.1015 2.75928889,6.86475 2.75928889,6.6045 C2.75928889,6.1155 2.83628889,5.64 2.99053333,5.1785 C3.14477778,4.71675 3.35524444,4.30875 3.6212,3.95375 C3.88715556,3.59875 4.19588889,3.313 4.54691111,3.09575 C4.89793333,2.879 5.27022222,2.7705 5.66328889,2.7705 C5.93315556,2.7705 6.16097778,2.81175 6.34602222,2.8945 C6.53131111,2.9775 6.70071111,3.086 6.8552,3.22025 L7.21355556,2.84125 L7.21355556,2.84125 Z M6.48437778,4.2735 C6.38415556,4.1865 6.28002222,4.1195 6.17222222,4.07225 C6.06417778,4.02475 5.92924444,4.00125 5.76717778,4.00125 C5.53593333,4.00125 5.3218,4.06825 5.12526667,4.2025 C4.92848889,4.3365 4.7586,4.50975 4.61608889,4.723 C4.47308889,4.936 4.36333333,5.175 4.28608889,5.43875 C4.20908889,5.7035 4.17022222,5.96175 4.17022222,6.214 C4.17022222,6.4745 4.22228889,6.68775 4.32666667,6.8535 C4.4308,7.01875 4.60997778,7.10175 4.86444444,7.10175 C4.97248889,7.10175 5.08835556,7.06825 5.21155556,7.0015 C5.33524444,6.93425 5.45453333,6.8455 5.57064444,6.735 C5.68626667,6.62475 5.79797778,6.49825 5.90602222,6.3565 C6.01406667,6.21425 6.11037778,6.0645 6.19544444,5.90675 L6.48437778,4.2735 L6.48437778,4.2735 Z" id="Shape"></path>
                    </g>
                </g>
            </g>
        </g>
    </g>
</svg>

<svg width="11" height="11" viewBox="0 0 11 11" xmlns="http://www.w3.org/2000/svg" xmlns:sketch="http://www.bohemiancoding.com/sketch/ns"><title>arroba</title><desc>Created with Sketch.</desc><path d="M7.22 2.841h.81l-.555 3.207c-.062.371-.064.639-.006.805.058.165.187.248.388.248.2 0 .397-.047.59-.142.193-.095.366-.24.521-.438.154-.197.28-.446.376-.745.096-.3.145-.655.145-1.065 0-.592-.097-1.097-.289-1.515-.193-.418-.457-.764-.792-1.035-.336-.272-.731-.472-1.186-.598-.455-.126-.945-.19-1.47-.19-.602 0-1.161.111-1.678.332-.517.221-.966.525-1.348.911-.382.387-.681.846-.897 1.379-.216.532-.324 1.11-.324 1.733 0 .615.09 1.168.272 1.657.181.489.446.905.793 1.249.347.343.777.607 1.29.793.513.185 1.101.278 1.765.278.223 0 .478-.027.763-.083.286-.055.544-.138.775-.249l.359 1.136c-.316.158-.638.268-.966.331-.328.063-.704.095-1.128.095-.748 0-1.441-.111-2.077-.331-.637-.221-1.188-.549-1.654-.982-.467-.434-.831-.973-1.094-1.615-.262-.643-.393-1.386-.393-2.231 0-.86.15-1.637.451-2.332.301-.694.706-1.286 1.215-1.775.509-.489 1.099-.865 1.77-1.13.671-.264 1.381-.396 2.129-.396.71 0 1.369.105 1.979.314.609.209 1.138.509 1.585.9.447.39.799.868 1.053 1.432.254.564.382 1.205.382 1.923 0 .505-.087.978-.26 1.42-.174.442-.413.825-.717 1.148-.305.323-.66.579-1.065.769-.405.189-.839.284-1.302.284-.193 0-.372-.021-.538-.065-.166-.043-.305-.117-.416-.219-.112-.103-.195-.237-.249-.402-.054-.165-.07-.37-.046-.615h-.046c-.116.166-.241.327-.376.485-.135.158-.284.298-.446.42-.162.122-.34.219-.532.29-.193.071-.405.107-.637.107-.185 0-.363-.042-.532-.124-.17-.083-.317-.2-.44-.349-.124-.15-.222-.331-.295-.545-.074-.213-.11-.45-.11-.71 0-.489.077-.965.231-1.426.154-.462.365-.87.631-1.225.266-.355.575-.641.926-.858.351-.217.723-.325 1.116-.325.27 0 .498.041.683.124.185.083.355.192.509.326l.358-.379zm-.729 1.432c-.1-.087-.204-.154-.312-.201-.108-.048-.243-.071-.405-.071-.231 0-.445.067-.642.201s-.367.307-.509.521c-.143.213-.253.452-.33.716-.077.265-.116.523-.116.775 0 .26.052.474.156.639.104.165.283.248.538.248.108 0 .224-.034.347-.1.124-.067.243-.156.359-.266.116-.11.227-.237.335-.379.108-.142.204-.292.289-.45l.289-1.633z" sketch:type="MSShapeGroup" fill="#000"/></svg>
